images/portal/4263.svg

<?xml version="1.0" standalone="no"?><!DOCTYPE svg PUBLIC "-//W3C//DTD SVG 1.1//EN" "http://www.w3.org/Graphics/SVG/1.1/DTD/svg11.dtd"><svg xmlns:xlink="http://www.w3.org/1999/xlink" version="1.1" class="highcharts-root" style="font-family:arial;font-size:9pt;" xmlns="http://www.w3.org/2000/svg" width="485" height="415"><desc>Created with Highstock 5.0.14</desc><defs><clipPath id="highcharts-2nauwee-7"><rect x="0" y="0" width="444" height="241" fill="none"></rect></clipPath><clipPath id="highcharts-2nauwee-8"><rect x="0" y="0" width="444" height="241" fill="none"></rect></clipPath></defs><rect fill="#fbfbfb" class="highcharts-background" x="0" y="0" width="485" height="415" rx="0" ry="0"></rect><rect fill="none" class="highcharts-plot-background" x="31" y="90" width="444" height="241"></rect><g class="highcharts-label" style="cursor:pointer;" transform="translate(10,451)"><text x="0" y="0"><tspan>&gt; Indikator-Details</tspan></text></g><g class="highcharts-pane-group"></g><g class="highcharts-grid highcharts-xaxis-grid "><path fill="none" class="highcharts-grid-line" d="M 58.5 90 L 58.5 331" opacity="1"></path><path fill="none" class="highcharts-grid-line" d="M 86.5 90 L 86.5 331" opacity="1"></path><path fill="none" class="highcharts-grid-line" d="M 113.5 90 L 113.5 331" opacity="1"></path><path fill="none" class="highcharts-grid-line" d="M 141.5 90 L 141.5 331" opacity="1"></path><path fill="none" class="highcharts-grid-line" d="M 169.5 90 L 169.5 331" opacity="1"></path><path fill="none" class="highcharts-grid-line" d="M 197.5 90 L 197.5 331" opacity="1"></path><path fill="none" class="highcharts-grid-line" d="M 224.5 90 L 224.5 331" opacity="1"></path><path fill="none" class="highcharts-grid-line" d="M 252.5 90 L 252.5 331" opacity="1"></path><path fill="none" class="highcharts-grid-line" d="M 280.5 90 L 280.5 331" opacity="1"></path><path fill="none" class="highcharts-grid-line" d="M 308.5 90 L 308.5 331" opacity="1"></path><path fill="none" class="highcharts-grid-line" d="M 335.5 90 L 335.5 331" opacity="1"></path><path fill="none" class="highcharts-grid-line" d="M 363.5 90 L 363.5 331" opacity="1"></path><path fill="none" class="highcharts-grid-line" d="M 391.5 90 L 391.5 331" opacity="1"></path><path fill="none" class="highcharts-grid-line" d="M 419.5 90 L 419.5 331" opacity="1"></path><path fill="none" class="highcharts-grid-line" d="M 446.5 90 L 446.5 331" opacity="1"></path><path fill="none" class="highcharts-grid-line" d="M 474.5 90 L 474.5 331" opacity="1"></path><path fill="none" class="highcharts-grid-line" d="M 30.5 90 L 30.5 331" opacity="1"></path></g><g class="highcharts-grid highcharts-yaxis-grid "><path fill="none" stroke="#e6e6e6" stroke-width="1" class="highcharts-grid-line" d="M 31 331.5 L 475 331.5" opacity="1"></path><path fill="none" stroke="#e6e6e6" stroke-width="1" class="highcharts-grid-line" d="M 31 271.5 L 475 271.5" opacity="1"></path><path fill="none" stroke="#e6e6e6" stroke-width="1" class="highcharts-grid-line" d="M 31 211.5 L 475 211.5" opacity="1"></path><path fill="none" stroke="#e6e6e6" stroke-width="1" class="highcharts-grid-line" d="M 31 150.5 L 475 150.5" opacity="1"></path><path fill="none" stroke="#e6e6e6" stroke-width="1" class="highcharts-grid-line" d="M 31 89.5 L 475 89.5" opacity="1"></path></g><g class="highcharts-grid highcharts-yaxis-grid "></g><rect fill="none" class="highcharts-plot-border" x="31" y="90" width="444" height="241"></rect><g class="highcharts-axis highcharts-xaxis "><path fill="none" class="highcharts-axis-line" stroke="#ccd6eb" stroke-width="1" d="M 31 331.5 L 475 331.5"></path></g><g class="highcharts-axis highcharts-yaxis "><path fill="none" class="highcharts-axis-line" d="M 31 90 L 31 331"></path></g><g class="highcharts-axis highcharts-yaxis "><path fill="none" class="highcharts-axis-line" d="M 475 90 L 475 331"></path></g><g class="highcharts-series-group"><g class="highcharts-series highcharts-series-0 highcharts-column-series highcharts-color-undefined " transform="translate(31,90) scale(1 1)" clip-path="url(#highcharts-2nauwee-8)"><rect x="7" y="212" width="14" height="30" fill="#FF8028" class="highcharts-point"></rect><rect x="35" y="212" width="14" height="30" fill="#FF8028" class="highcharts-point"></rect><rect x="63" y="182" width="14" height="60" fill="#FF8028" class="highcharts-point"></rect><rect x="90" y="182" width="14" height="60" fill="#FF8028" class="highcharts-point"></rect><rect x="118" y="182" width="14" height="60" fill="#FF8028" class="highcharts-point"></rect><rect x="146" y="182" width="14" height="60" fill="#FF8028" class="highcharts-point"></rect><rect x="174" y="152" width="14" height="90" fill="#FF8028" class="highcharts-point"></rect><rect x="201" y="122" width="14" height="120" fill="#FF8028" class="highcharts-point"></rect><rect x="229" y="122" width="14" height="120" fill="#FF8028" class="highcharts-point"></rect><rect x="257" y="122" width="14" height="120" fill="#FF8028" class="highcharts-point"></rect><rect x="285" y="122" width="14" height="120" fill="#FF8028" class="highcharts-point"></rect><rect x="312" y="91" width="14" height="151" fill="#FF8028" class="highcharts-point"></rect><rect x="340" y="91" width="14" height="151" fill="#FF8028" class="highcharts-point"></rect><rect x="368" y="61" width="14" height="181" fill="#FF8028" class="highcharts-point"></rect><rect x="396" y="61" width="14" height="181" fill="#FF8028" class="highcharts-point"></rect><rect x="423" y="61" width="14" height="181" fill="#FF8028" class="highcharts-point"></rect></g><g class="highcharts-markers highcharts-series-0 highcharts-column-series highcharts-color-undefined " transform="translate(31,90) scale(1 1)" clip-path="none"></g></g><text x="10" text-anchor="start" class="highcharts-title" style="color:#000000;font-size:1.1em;font-weight:bold;fill:#000000;" y="20"><tspan>Hochsicherheitslaboratorien in Biotechnologiebetrieben</tspan></text><text x="10" text-anchor="start" class="highcharts-subtitle" style="color:#000000;font-size:0.9em;fill:#000000;" y="38"><tspan>Anzahl Laboratorien</tspan></text><g class="highcharts-legend" transform="translate(10,40)"><rect fill="none" class="highcharts-legend-box" rx="0" ry="0" x="0" y="0" width="216" height="38" visibility="visible"></rect><g><g><g class="highcharts-legend-item highcharts-column-series highcharts-color-undefined highcharts-series-0" transform="translate(12,7)"><text x="21" style="color:#333333;font-size:1em;font-weight:normal;cursor:pointer;fill:#333333;" text-anchor="start" y="15"><tspan>BS: Hochsicherheitslaboratorien</tspan></text><rect x="2" y="4" width="12" height="12" fill="#FF8028" class="highcharts-point"></rect></g></g></g></g><g class="highcharts-axis-labels highcharts-xaxis-labels "><text x="47.46772486435067" style="color:#000000;cursor:default;font-size:0.9em;fill:#000000;" text-anchor="end" transform="translate(0,0) rotate(-45 47.46772486435067 347)" y="347" opacity="1"><tspan>2001</tspan></text><text x="75.21772486435067" style="color:#000000;cursor:default;font-size:0.9em;fill:#000000;" text-anchor="end" transform="translate(0,0) rotate(-45 75.21772486435067 347)" y="347" opacity="1"><tspan>2002</tspan></text><text x="102.96772486435067" style="color:#000000;cursor:default;font-size:0.9em;fill:#000000;" text-anchor="end" transform="translate(0,0) rotate(-45 102.96772486435067 347)" y="347" opacity="1"><tspan>2003</tspan></text><text x="130.71772486435069" style="color:#000000;cursor:default;font-size:0.9em;fill:#000000;" text-anchor="end" transform="translate(0,0) rotate(-45 130.71772486435069 347)" y="347" opacity="1"><tspan>2004</tspan></text><text x="158.46772486435069" style="color:#000000;cursor:default;font-size:0.9em;fill:#000000;" text-anchor="end" transform="translate(0,0) rotate(-45 158.46772486435069 347)" y="347" opacity="1"><tspan>2005</tspan></text><text x="186.21772486435069" style="color:#000000;cursor:default;font-size:0.9em;fill:#000000;" text-anchor="end" transform="translate(0,0) rotate(-45 186.21772486435069 347)" y="347" opacity="1"><tspan>2006</tspan></text><text x="213.96772486435069" style="color:#000000;cursor:default;font-size:0.9em;fill:#000000;" text-anchor="end" transform="translate(0,0) rotate(-45 213.96772486435069 347)" y="347" opacity="1"><tspan>2007</tspan></text><text x="241.71772486435069" style="color:#000000;cursor:default;font-size:0.9em;fill:#000000;" text-anchor="end" transform="translate(0,0) rotate(-45 241.71772486435069 347)" y="347" opacity="1"><tspan>2008</tspan></text><text x="269.46772486435066" style="color:#000000;cursor:default;font-size:0.9em;fill:#000000;" text-anchor="end" transform="translate(0,0) rotate(-45 269.46772486435066 347)" y="347" opacity="1"><tspan>2009</tspan></text><text x="297.21772486435066" style="color:#000000;cursor:default;font-size:0.9em;fill:#000000;" text-anchor="end" transform="translate(0,0) rotate(-45 297.21772486435066 347)" y="347" opacity="1"><tspan>2010</tspan></text><text x="324.96772486435066" style="color:#000000;cursor:default;font-size:0.9em;fill:#000000;" text-anchor="end" transform="translate(0,0) rotate(-45 324.96772486435066 347)" y="347" opacity="1"><tspan>2011</tspan></text><text x="352.71772486435066" style="color:#000000;cursor:default;font-size:0.9em;fill:#000000;" text-anchor="end" transform="translate(0,0) rotate(-45 352.71772486435066 347)" y="347" opacity="1"><tspan>2012</tspan></text><text x="380.46772486435066" style="color:#000000;cursor:default;font-size:0.9em;fill:#000000;" text-anchor="end" transform="translate(0,0) rotate(-45 380.46772486435066 347)" y="347" opacity="1"><tspan>2013</tspan></text><text x="408.21772486435066" style="color:#000000;cursor:default;font-size:0.9em;fill:#000000;" text-anchor="end" transform="translate(0,0) rotate(-45 408.21772486435066 347)" y="347" opacity="1"><tspan>2014</tspan></text><text x="435.96772486435066" style="color:#000000;cursor:default;font-size:0.9em;fill:#000000;" text-anchor="end" transform="translate(0,0) rotate(-45 435.96772486435066 347)" y="347" opacity="1"><tspan>2015</tspan></text><text x="463.71772486435066" style="color:#000000;cursor:default;font-size:0.9em;fill:#000000;" text-anchor="end" transform="translate(0,0) rotate(-45 463.71772486435066 347)" y="347" opacity="1"><tspan>2016</tspan></text></g><g class="highcharts-axis-labels highcharts-yaxis-labels "><text x="16" style="color:#000000;cursor:default;font-size:0.9em;fill:#000000;" text-anchor="end" transform="translate(0,0)" y="336" opacity="1"><tspan>0</tspan></text><text x="16" style="color:#000000;cursor:default;font-size:0.9em;fill:#000000;" text-anchor="end" transform="translate(0,0)" y="275" opacity="1"><tspan>2</tspan></text><text x="16" style="color:#000000;cursor:default;font-size:0.9em;fill:#000000;" text-anchor="end" transform="translate(0,0)" y="215" opacity="1"><tspan>4</tspan></text><text x="16" style="color:#000000;cursor:default;font-size:0.9em;fill:#000000;" text-anchor="end" transform="translate(0,0)" y="155" opacity="1"><tspan>6</tspan></text><text x="16" style="color:#000000;cursor:default;font-size:0.9em;fill:#000000;" text-anchor="end" transform="translate(0,0)" y="95" opacity="1"><tspan>8</tspan></text></g><g class="highcharts-axis-labels highcharts-yaxis-labels "></g><text x="10" class="highcharts-credits" text-anchor="start" style="cursor:default;color:#000000;font-size:0.8em;fill:#000000;" y="400"><tspan>Quelle: Bundesamt für Umwelt</tspan></text></svg>

<svg class="highcharts-root" xmlns="http://www.w3.org/2000/svg" viewBox="0 0 485 415" font-family="Arial" font-size="12">
    <defs>
        <clipPath id="a">
            <path fill="none" d="M0 0h444v241H0z"/>
        </clipPath>
    </defs>
    <rect fill="#fbfbfb" class="highcharts-background" width="485" height="415" rx="0" ry="0"/>
    <path fill="none" class="highcharts-plot-background" d="M31 90h444v241H31z"/>
    <text transform="translate(10 451)" class="highcharts-label" cursor="pointer">
        <tspan>&gt; Indikator-Details</tspan>
    </text>
    <g class="highcharts-grid highcharts-xaxis-grid">
        <path fill="none" class="highcharts-grid-line" d="M58.5 90v241m0-241v241m28-241v241m0-241v241m27-241v241m0-241v241m28-241v241m0-241v241m28-241v241m0-241v241m28-241v241m0-241v241m27-241v241m0-241v241m28-241v241m0-241v241m28-241v241m0-241v241m28-241v241m0-241v241m27-241v241m0-241v241m28-241v241m0-241v241m28-241v241m0-241v241m28-241v241m0-241v241m27-241v241m0-241v241m28-241v241m0-241v241M30.5 90v241m0-241v241"/>
    </g>
    <g class="highcharts-grid highcharts-yaxis-grid">
        <path fill="none" stroke="#e6e6e6" class="highcharts-grid-line" d="M31 331.5h444m-444-60h444m-444-60h444m-444-61h444m-444-61h444"/>
    </g>
    <path fill="none" class="highcharts-plot-border" d="M31 90h444v241H31z"/>
    <g class="highcharts-axis highcharts-xaxis">
        <path fill="none" class="highcharts-axis-line" stroke="#ccd6eb" d="M31 331.5h444"/>
    </g>
    <g class="highcharts-axis highcharts-yaxis">
        <path fill="none" class="highcharts-axis-line" d="M31 90v241"/>
    </g>
    <g class="highcharts-axis highcharts-yaxis">
        <path fill="none" class="highcharts-axis-line" d="M475 90v241"/>
    </g>
    <g class="highcharts-series-group">
        <g class="highcharts-series highcharts-series-0 highcharts-column-series highcharts-color-undefined highcharts-tracker" transform="translate(31 90)" clip-path="url(#a)">
            <path fill="#FF8028" class="highcharts-point" d="M7 212h14v30H7zm28 0h14v30H35zm28-30h14v60H63zm27 0h14v60H90zm28 0h14v60h-14zm28 0h14v60h-14zm28-30h14v90h-14zm27-30h14v120h-14zm28 0h14v120h-14zm28 0h14v120h-14zm28 0h14v120h-14zm27-31h14v151h-14zm28 0h14v151h-14zm28-30h14v181h-14zm28 0h14v181h-14zm27 0h14v181h-14z"/>
        </g>
    </g>
    <text x="10" class="highcharts-title" y="20" color="#000" font-size="1.1em" font-weight="700">
        <tspan>Hochsicherheitslaboratorien in Biotechnologiebetrieben</tspan>
    </text>
    <text x="10" class="highcharts-subtitle" y="38" color="#000" font-size=".9em">
        <tspan>Anzahl Laboratorien</tspan>
    </text>
    <g class="highcharts-legend" transform="translate(10 40)">
        <rect fill="none" class="highcharts-legend-box" rx="0" ry="0" width="216" height="38"/>
        <g class="highcharts-legend-item highcharts-column-series highcharts-color-undefined highcharts-series-0">
            <text x="21" y="15" color="#333" font-size="1em" font-weight="400" cursor="pointer" fill="#333" transform="translate(12 7)">
                <tspan>BS: Hochsicherheitslaboratorien</tspan>
            </text>
            <path fill="#FF8028" class="highcharts-point" d="M14 11h12v12H14z"/>
        </g>
    </g>
    <g class="highcharts-axis-labels highcharts-xaxis-labels" text-anchor="end" color="#000" cursor="default" font-size=".9em">
        <text x="47.468" transform="rotate(-45 47.468 347)" y="347">
            <tspan>2001</tspan>
        </text>
        <text x="75.218" transform="rotate(-45 75.218 347)" y="347">
            <tspan>2002</tspan>
        </text>
        <text x="102.968" transform="rotate(-45 102.968 347)" y="347">
            <tspan>2003</tspan>
        </text>
        <text x="130.718" transform="rotate(-45 130.718 347)" y="347">
            <tspan>2004</tspan>
        </text>
        <text x="158.468" transform="rotate(-45 158.468 347)" y="347">
            <tspan>2005</tspan>
        </text>
        <text x="186.218" transform="rotate(-45 186.218 347)" y="347">
            <tspan>2006</tspan>
        </text>
        <text x="213.968" transform="rotate(-45 213.968 347)" y="347">
            <tspan>2007</tspan>
        </text>
        <text x="241.718" transform="rotate(-45 241.718 347)" y="347">
            <tspan>2008</tspan>
        </text>
        <text x="269.468" transform="rotate(-45 269.468 347)" y="347">
            <tspan>2009</tspan>
        </text>
        <text x="297.218" transform="rotate(-45 297.218 347)" y="347">
            <tspan>2010</tspan>
        </text>
        <text x="324.968" transform="rotate(-45 324.968 347)" y="347">
            <tspan>2011</tspan>
        </text>
        <text x="352.718" transform="rotate(-45 352.718 347)" y="347">
            <tspan>2012</tspan>
        </text>
        <text x="380.468" transform="rotate(-45 380.468 347)" y="347">
            <tspan>2013</tspan>
        </text>
        <text x="408.218" transform="rotate(-45 408.218 347)" y="347">
            <tspan>2014</tspan>
        </text>
        <text x="435.968" transform="rotate(-45 435.968 347)" y="347">
            <tspan>2015</tspan>
        </text>
        <text x="463.718" transform="rotate(-45 463.718 347)" y="347">
            <tspan>2016</tspan>
        </text>
    </g>
    <g class="highcharts-axis-labels highcharts-yaxis-labels" text-anchor="end" color="#000" cursor="default" font-size=".9em">
        <text x="16" y="336">
            <tspan>0</tspan>
        </text>
        <text x="16" y="275">
            <tspan>2</tspan>
        </text>
        <text x="16" y="215">
            <tspan>4</tspan>
        </text>
        <text x="16" y="155">
            <tspan>6</tspan>
        </text>
        <text x="16" y="95">
            <tspan>8</tspan>
        </text>
    </g>
    <text x="10" class="highcharts-credits" y="400" cursor="default" color="#000" font-size=".8em">
        <tspan>Quelle: Bundesamt für Umwelt</tspan>
    </text>
</svg>
